!!!OTL: 123. Skotshne
!!!Genre:	Skotshne
!!!Mode:	Minor
!!!Listening/dance:	dance
!!!One_Mode:	no
**kern
*thru
*I"P1
*clefG2
*k[b-e-]
*B-:
!LO:TX:a:i:t=Bb-major
8f
8g
8aJ
=18
(4.b-
8f)
=19
(4.b-
8f)
=20
8.b-L
16fJk
8.b-L
16fJk
=21
8.b-L
16fJk
8.b-L
16fJk
=22
8ddL
8cc
8b-J
8r
=23
(16d'LL
16e-'
16d'
16c'JJ)
4B-
=24
8ee-L
8dd
8ccJ
8r
=25
16e-'LL
16f'
16e-'
16d'JJ
4c
=26
8ff
4ee-
[8dd
=27
8dd]
4cc
8b-
=28
8ccTL
8b-
8ee-
8ddJ
=29
8ccL
8b-
8a
8gJ
!!!End-Modulation
*-
